X:83
T:Dublin Lasses
Z: id:dc-reel-76
M:C
L:1/8
K:F Major
d|cFF2 cFdF|cFFG AGG2|cFAc dAcA|GcAG FDDd|!
cFF2 dFF2|cFF2 dFF2|DEFA dAcA|GcAG FDD:|!
g|fcc2 eceg|f2fg afde|fcc2 AFF2|GcAG FDDg|!
fcc2 eceg|f2fg afdf|afge fdcA|GcAG FDD:|!
c|Addc Addc|Addc AcGc|Addc AcAG|FAdc AGGc|!
Addc Addc|Addc AGGF|DEFA dAcA|GcAG FDD:|!

